client/assets/images/customer-home/illustration--task-podcasting.svg

<svg width="257" height="157" viewBox="0 0 257 157" fill="none" xmlns="http://www.w3.org/2000/svg">
<g clip-path="url(#clip0)">
<path d="M233.018 111.089C233.017 94.5097 229.309 78.1413 222.168 63.1836C215.027 48.2258 204.632 35.058 191.747 24.6454C178.862 14.2329 163.813 6.83977 147.703 3.00802C131.593 -0.823726 114.831 -0.996904 98.645 2.50118C82.4595 5.99927 67.261 13.0799 54.164 23.224C41.0671 33.3681 30.4036 46.3184 22.9554 61.1254C15.5073 75.9324 11.4634 92.2208 11.1202 108.796C10.7769 125.371 14.1431 141.814 20.9718 156.917H223.115C229.659 142.528 233.037 126.899 233.018 111.089Z" fill="#E6F1F5"/>
<path d="M12.483 156.917H228.857" stroke="#2C3338" stroke-linecap="round" stroke-linejoin="round"/>
<path d="M0 156.917H6.93506" stroke="#2C3338" stroke-linecap="round" stroke-linejoin="round"/>
<path d="M234.405 156.917H241.341" stroke="#2C3338" stroke-linecap="round" stroke-linejoin="round"/>
<path d="M130.131 137.835H110.99V149.334H130.131V137.835Z" fill="white"/>
<path d="M130.131 137.835H110.99V149.334H130.131V137.835Z" stroke="#2C3338" stroke-linecap="round" stroke-linejoin="round"/>
<path d="M145.444 157H95.6776C95.6776 154.967 96.4843 153.017 97.9201 151.579C99.3559 150.142 101.303 149.334 103.334 149.334H137.787C139.816 149.341 141.759 150.151 143.193 151.587C144.627 153.024 145.436 154.969 145.444 157Z" fill="white" stroke="#2C3338" stroke-linecap="round" stroke-linejoin="round"/>
<path d="M172.241 49.6786H68.9915C66.4533 49.6786 64.019 50.6882 62.2242 52.4852C60.4295 54.2823 59.4211 56.7196 59.4211 59.2609V122.504H181.811V59.2609C181.804 56.7218 180.793 54.2888 179 52.4933C177.207 50.6979 174.777 49.686 172.241 49.6786Z" fill="#D48FC8"/>
<path fill-rule="evenodd" clip-rule="evenodd" d="M113.098 90.9515C112.116 90.9515 111.318 90.1496 111.318 89.164C111.318 88.1784 112.116 87.3767 113.098 87.3767C114.08 87.3767 114.878 88.1784 114.878 89.164C114.878 90.1496 114.08 90.9515 113.098 90.9515Z" fill="white"/>
<path fill-rule="evenodd" clip-rule="evenodd" d="M113.066 88.619C112.776 88.619 112.539 88.8565 112.539 89.1482C112.539 89.4401 112.776 89.6774 113.066 89.6774C113.357 89.6774 113.593 89.4401 113.593 89.1482C113.593 88.8565 113.357 88.619 113.066 88.619Z" fill="white"/>
<path fill-rule="evenodd" clip-rule="evenodd" d="M114.57 89.9591H121.98V88.346H114.57V89.9591Z" fill="white"/>
<path fill-rule="evenodd" clip-rule="evenodd" d="M120.169 94.0026L119.174 92.2898L119.719 91.986C120.557 91.5196 121.145 90.547 121.26 89.4439L121.269 89.1053L121.26 88.7665C121.145 87.6635 120.557 86.6908 119.719 86.2245L119.174 85.9207L120.169 84.2078L120.692 84.5008C121.438 84.9185 122.07 85.5647 122.52 86.3694C122.975 87.1819 123.224 88.1243 123.241 89.0948L123.241 89.1053L123.241 89.1157C123.224 90.0861 122.975 91.0288 122.52 91.8413C122.07 92.646 121.438 93.2922 120.692 93.7096L120.169 94.0026Z" fill="white"/>
<path fill-rule="evenodd" clip-rule="evenodd" d="M121.838 89.4827C121.706 90.8292 120.985 91.9633 119.984 92.5213L120.362 93.1736C121.662 92.4462 122.568 90.9016 122.598 89.1046C122.568 87.3074 121.662 85.7631 120.362 85.0355L119.984 85.6878C120.985 86.2458 121.706 87.3801 121.838 88.7264L121.848 89.1046L121.838 89.4827Z" fill="white"/>
<path fill-rule="evenodd" clip-rule="evenodd" d="M127.872 90.2568C127.502 93.9237 125.492 97.013 122.694 98.5329L123.752 100.309C127.38 98.328 129.91 94.1218 129.995 89.2269C129.91 84.3325 127.38 80.1263 123.752 78.1447L122.694 79.9212C125.492 81.441 127.502 84.5305 127.872 88.1972L127.901 89.2269L127.872 90.2568Z" fill="white"/>
<path fill-rule="evenodd" clip-rule="evenodd" d="M121.939 97.1837L120.932 95.4504L121.191 95.3063C122.085 94.8084 122.866 94.0446 123.45 93.098C124.046 92.132 124.423 90.9943 124.541 89.8073L124.561 89.1121L124.541 88.417C124.423 87.2298 124.046 86.0924 123.45 85.1264C122.866 84.1795 122.085 83.416 121.191 82.9179L120.932 82.774L121.939 81.0407L122.187 81.1795C123.455 81.8897 124.534 82.9943 125.305 84.3734C126.094 85.782 126.526 87.4188 126.554 89.1072L126.554 89.1121L126.554 89.1171C126.526 90.8055 126.094 92.4424 125.305 93.851C124.534 95.2301 123.455 96.3346 122.187 97.0449L121.939 97.1837Z" fill="white"/>
<path fill-rule="evenodd" clip-rule="evenodd" d="M121.747 95.6984L122.17 96.4281C123.24 95.7685 124.153 94.7963 124.822 93.6007C125.563 92.2774 125.969 90.7372 125.996 89.1464C125.969 87.5559 125.563 86.0157 124.822 84.6924C124.153 83.4968 123.24 82.5246 122.17 81.8648L121.747 82.5945C122.62 83.1382 123.382 83.9143 123.962 84.855C124.606 85.8985 125.013 87.1261 125.138 88.4045L125.14 88.425L125.16 89.1464L125.138 89.8886C125.013 91.167 124.606 92.3943 123.962 93.4381C123.382 94.3786 122.62 95.1549 121.747 95.6984Z" fill="white"/>
<path fill-rule="evenodd" clip-rule="evenodd" d="M124.838 89.8445C124.588 92.3854 123.23 94.5259 121.339 95.5791L122.054 96.8099C124.506 95.437 126.216 92.5224 126.273 89.1309C126.216 85.7394 124.506 82.825 122.054 81.4519L121.339 82.6827C123.23 83.736 124.588 85.8766 124.838 88.4174L124.858 89.1309L124.838 89.8445Z" fill="white"/>
<path d="M172.241 49.6786H68.9915C66.4533 49.6786 64.019 50.6882 62.2242 52.4852C60.4295 54.2823 59.4211 56.7196 59.4211 59.2609V122.504H181.811V59.2609C181.804 56.7218 180.793 54.2888 179 52.4933C177.207 50.6979 174.777 49.686 172.241 49.6786V49.6786Z" stroke="#2C3338" stroke-linecap="round" stroke-linejoin="round"/>
<path d="M172.241 137.835C174.779 137.835 177.213 136.826 179.008 135.029C180.803 133.232 181.811 130.794 181.811 128.253V122.503H59.3101V128.253C59.3063 129.522 59.5549 130.779 60.0415 131.95C60.528 133.122 61.2428 134.185 62.144 135.077C63.0453 135.969 64.1149 136.672 65.2906 137.146C66.4662 137.619 67.7243 137.854 68.9915 137.835H172.241Z" fill="white" stroke="#2C3338" stroke-linecap="round" stroke-linejoin="round"/>
<path d="M120.561 131.752C121.434 131.752 122.142 131.044 122.142 130.169C122.142 129.295 121.434 128.586 120.561 128.586C119.688 128.586 118.98 129.295 118.98 130.169C118.98 131.044 119.688 131.752 120.561 131.752Z" stroke="#2C3338" stroke-linecap="round" stroke-linejoin="round"/>
<rect x="177.754" y="153.215" width="21.1671" height="3.73417" rx="1" fill="#98C6D9" stroke="#2C3338"/>
<rect x="186.25" y="135.396" width="3.59352" height="17.9617" fill="#98C6D9" stroke="#2C3338"/>
<path d="M173.672 90C173.672 87.7909 175.463 86 177.672 86H198.42C200.629 86 202.42 87.7909 202.42 90V121.923H173.672V90Z" fill="white" stroke="#2C3338"/>
<mask id="mask0" mask-type="alpha" maskUnits="userSpaceOnUse" x="173" y="85" width="30" height="38">
<path d="M173.672 90C173.672 87.7909 175.463 86 177.672 86H198.42C200.629 86 202.42 87.7909 202.42 90V121.923H173.672V90Z" fill="white" stroke="#2C3338"/>
</mask>
<g mask="url(#mask0)">
<line y1="-0.5" x2="48.3559" y2="-0.5" transform="matrix(0.707222 -0.706991 0.707222 0.706991 167.019 118.088)" stroke="#2C3338"/>
<line y1="-0.5" x2="48.3559" y2="-0.5" transform="matrix(0.707222 -0.706991 0.707222 0.706991 155.807 106.878)" stroke="#2C3338"/>
<line y1="-0.5" x2="51.5268" y2="-0.5" transform="matrix(-0.707222 -0.706991 0.707222 -0.706991 194.49 126.494)" stroke="#2C3338"/>
<line y1="-0.5" x2="48.3559" y2="-0.5" transform="matrix(0.707222 -0.706991 0.707222 0.706991 171.504 122.569)" stroke="#2C3338"/>
<line y1="-0.5" x2="51.5268" y2="-0.5" transform="matrix(-0.707222 -0.706991 0.707222 -0.706991 198.975 122.01)" stroke="#2C3338"/>
<line y1="-0.5" x2="48.3559" y2="-0.5" transform="matrix(0.707222 -0.706991 0.707222 0.706991 175.989 127.054)" stroke="#2C3338"/>
<line y1="-0.5" x2="48.3559" y2="-0.5" transform="matrix(0.707222 -0.706991 0.707222 0.706991 178.231 129.296)" stroke="#2C3338"/>
<line y1="-0.5" x2="48.3559" y2="-0.5" transform="matrix(0.707222 -0.706991 0.707222 0.706992 180.473 131.538)" stroke="#2C3338"/>
<line y1="-0.5" x2="48.3559" y2="-0.5" transform="matrix(0.707223 -0.706991 0.707222 0.706991 182.717 133.78)" stroke="#2C3338"/>
<line y1="-0.5" x2="48.3559" y2="-0.5" transform="matrix(0.707222 -0.706991 0.707222 0.706991 184.959 136.022)" stroke="#2C3338"/>
<line y1="-0.5" x2="48.3559" y2="-0.5" transform="matrix(0.707222 -0.706991 0.707222 0.706991 162.534 113.604)" stroke="#2C3338"/>
<line y1="-0.5" x2="48.3559" y2="-0.5" transform="matrix(0.707223 -0.706991 0.707223 0.706991 151.321 102.394)" stroke="#2C3338"/>
<line y1="-0.5" x2="51.5268" y2="-0.5" transform="matrix(-0.707222 -0.706991 0.707222 -0.706991 190.004 130.978)" stroke="#2C3338"/>
<line y1="-0.5" x2="48.3559" y2="-0.5" transform="matrix(0.707222 -0.706991 0.707222 0.706991 169.261 120.33)" stroke="#2C3338"/>
<line y1="-0.5" x2="48.3559" y2="-0.5" transform="matrix(0.707222 -0.706991 0.707222 0.706992 158.049 109.12)" stroke="#2C3338"/>
<line y1="-0.5" x2="51.5268" y2="-0.5" transform="matrix(-0.707223 -0.706991 0.707223 -0.706991 196.732 124.252)" stroke="#2C3338"/>
<line y1="-0.5" x2="48.3559" y2="-0.5" transform="matrix(0.707223 -0.706991 0.707223 0.706991 173.746 124.812)" stroke="#2C3338"/>
<line y1="-0.5" x2="51.5267" y2="-0.5" transform="matrix(-0.707222 -0.706991 0.707222 -0.706991 201.217 119.768)" stroke="#2C3338"/>
<line y1="-0.5" x2="51.5268" y2="-0.5" transform="matrix(-0.707222 -0.706991 0.707222 -0.706991 203.46 117.526)" stroke="#2C3338"/>
<line y1="-0.5" x2="51.5268" y2="-0.5" transform="matrix(-0.707222 -0.706992 0.707222 -0.706992 212.429 108.56)" stroke="#2C3338"/>
<line y1="-0.5" x2="51.5268" y2="-0.5" transform="matrix(-0.707222 -0.706991 0.707222 -0.706991 205.702 115.284)" stroke="#2C3338"/>
<line y1="-0.5" x2="51.5268" y2="-0.5" transform="matrix(-0.707222 -0.706991 0.707222 -0.706991 214.672 106.318)" stroke="#2C3338"/>
<line y1="-0.5" x2="51.5268" y2="-0.5" transform="matrix(-0.707222 -0.706991 0.707222 -0.706991 207.945 113.042)" stroke="#2C3338"/>
<line y1="-0.5" x2="51.5268" y2="-0.5" transform="matrix(-0.707222 -0.706991 0.707222 -0.706991 216.914 104.076)" stroke="#2C3338"/>
<line y1="-0.5" x2="51.5268" y2="-0.5" transform="matrix(-0.707222 -0.706991 0.707222 -0.706991 210.187 110.802)" stroke="#2C3338"/>
<line y1="-0.5" x2="51.5268" y2="-0.5" transform="matrix(-0.707222 -0.706991 0.707222 -0.706991 219.158 101.834)" stroke="#2C3338"/>
<line y1="-0.5" x2="48.3559" y2="-0.5" transform="matrix(0.707223 -0.706991 0.707222 0.706991 164.776 115.846)" stroke="#2C3338"/>
<line y1="-0.5" x2="48.3559" y2="-0.5" transform="matrix(0.707223 -0.706991 0.707223 0.706991 153.563 104.636)" stroke="#2C3338"/>
<line y1="-0.5" x2="51.5268" y2="-0.5" transform="matrix(-0.707222 -0.706991 0.707222 -0.706991 192.248 128.736)" stroke="#2C3338"/>
<line y1="-0.5" x2="48.3559" y2="-0.5" transform="matrix(0.707222 -0.706991 0.707222 0.706991 160.292 111.362)" stroke="#2C3338"/>
<line y1="-0.5" x2="48.3559" y2="-0.5" transform="matrix(0.707222 -0.706991 0.707222 0.706991 149.079 100.152)" stroke="#2C3338"/>
<line y1="-0.5" x2="51.5268" y2="-0.5" transform="matrix(-0.707222 -0.706991 0.707222 -0.706991 187.762 133.218)" stroke="#2C3338"/>
<line y1="-0.5" x2="51.5268" y2="-0.5" transform="matrix(-0.707222 -0.706991 0.707222 -0.706991 185.519 135.46)" stroke="#2C3338"/>
</g>
<path d="M173.672 124.619H202.42V138.58C202.42 140.79 200.629 142.58 198.42 142.58H177.672C175.463 142.58 173.672 140.79 173.672 138.58V124.619Z" fill="#98C6D9" stroke="#2C3338"/>
<rect x="186.25" y="131.803" width="3.59352" height="3.59232" rx="1" fill="white" stroke="#2C3338"/>
<rect x="172.774" y="121.024" width="30.5449" height="3.59237" rx="1" fill="#98C6D9" stroke="#2C3338"/>
<path d="M55.3317 26.8711C55.2336 26.4397 54.8414 26.0083 54.4492 25.9005L51.2132 24.6063C50.821 24.4985 50.821 24.2828 51.2132 24.0671L54.4492 22.773C54.8414 22.773 55.2336 22.3416 55.3317 21.9102L56.5084 18.3514C56.6065 17.92 56.8026 17.92 56.9987 18.3514L58.1754 21.9102C58.2735 22.3416 58.6657 22.773 59.0579 22.8808L62.2939 24.175C62.6861 24.2828 62.6861 24.4985 62.2939 24.7142L58.9599 25.9005C58.5676 26.0083 58.1754 26.4397 58.0773 26.8711L56.9006 30.4299C56.8026 30.8613 56.6065 30.8613 56.4103 30.4299L55.3317 26.8711Z" fill="#399ce3"/>
<path d="M31.9686 112.615C31.4686 112.781 30.9686 113.281 30.9686 113.615L29.8019 116.78C29.6353 117.28 29.3019 117.28 29.1353 116.78L27.9686 113.615C27.8019 113.115 27.302 112.615 26.9686 112.615L23.802 111.449C23.302 111.282 23.302 110.949 23.802 110.782L26.9686 109.616C27.4686 109.449 27.9686 108.949 27.9686 108.616L29.1353 105.451C29.3019 104.951 29.6353 104.951 29.8019 105.451L30.9686 108.616C31.1353 109.116 31.6353 109.616 31.9686 109.616L35.1352 110.782C35.6352 110.949 35.6352 111.282 35.1352 111.449L31.9686 112.615Z" fill="#044b7a"/>
<path d="M37.6961 18.7307C37.5974 18.4841 37.4001 18.2375 37.2027 18.1142L36.2159 17.6209C36.0185 17.4976 36.0185 17.3743 36.2159 17.3743L37.2027 16.8811C37.4001 16.7577 37.5974 16.5111 37.6961 16.2645L38.0908 15.0314C38.1895 14.7848 38.2882 14.7848 38.2882 15.0314L38.6829 16.2645C38.7816 16.5111 38.979 16.7577 39.1763 16.8811L40.1631 17.3743C40.3605 17.4976 40.3605 17.6209 40.1631 17.6209L39.1763 18.1142C38.979 18.2375 38.7816 18.4841 38.6829 18.7307L38.2882 19.9638C38.1895 20.2104 38.0908 20.2104 38.0908 19.9638L37.6961 18.7307Z" fill="#F0C930"/>
<path d="M187.765 59.8705L187.765 77.8984" stroke="#F0C930" stroke-linecap="round"/>
<path d="M148.105 96.6886L159.598 99.5605" stroke="#F0C930" stroke-linecap="round"/>
<path d="M213.906 99.5614L225.398 96.6895" stroke="#F0C930" stroke-linecap="round"/>
<path d="M154.305 70.4355L156.169 72.2989M164.695 80.8223L158.07 74.199" stroke="#F0C930" stroke-linecap="round"/>
<path d="M219.945 70.4746L218.081 72.3379M209.555 80.8613L216.18 74.2381" stroke="#F0C930" stroke-linecap="round"/>
</g>
<defs>
<clipPath id="clip0">
<rect width="257" height="157" fill="white"/>
</clipPath>
</defs>
</svg>

<svg width="257" height="157" fill="none" xmlns="http://www.w3.org/2000/svg"><g clip-path="url(#clip0)"><path d="M233.018 111.089a111.211 111.211 0 00-10.85-47.905 111.076 111.076 0 00-30.421-38.539 110.903 110.903 0 00-44.044-21.637 110.827 110.827 0 00-49.058-.507 110.9 110.9 0 00-44.481 20.723 111.071 111.071 0 00-31.209 37.901 111.218 111.218 0 00-1.984 95.792h202.144a110.38 110.38 0 009.903-45.828z" fill="#E6F1F5"/><path d="M12.483 156.917h216.374M0 156.917h6.935M234.405 156.917h6.936" stroke="#2C3338" stroke-linecap="round" stroke-linejoin="round"/><path d="M130.131 137.835H110.99v11.499h19.141v-11.499z" fill="#fff"/><path d="M130.131 137.835H110.99v11.499h19.141v-11.499z" stroke="#2C3338" stroke-linecap="round" stroke-linejoin="round"/><path d="M145.444 157H95.678c0-2.033.806-3.983 2.242-5.421a7.653 7.653 0 015.414-2.245h34.453a7.677 7.677 0 015.406 2.253 7.706 7.706 0 012.251 5.413z" fill="#fff" stroke="#2C3338" stroke-linecap="round" stroke-linejoin="round"/><path d="M172.241 49.679H68.991a9.565 9.565 0 00-6.767 2.806 9.589 9.589 0 00-2.803 6.776v63.243h122.39V59.261A9.616 9.616 0 00179 52.493a9.592 9.592 0 00-6.759-2.814z" fill="#D48FC8"/><path fill-rule="evenodd" clip-rule="evenodd" d="M113.098 90.951c-.982 0-1.78-.801-1.78-1.787 0-.986.798-1.787 1.78-1.787s1.78.801 1.78 1.787c0 .986-.798 1.787-1.78 1.787z" fill="#fff"/><path fill-rule="evenodd" clip-rule="evenodd" d="M113.066 88.619a.53.53 0 000 1.058.528.528 0 000-1.058zM114.57 89.96h7.41v-1.614h-7.41v1.613z" fill="#fff"/><path fill-rule="evenodd" clip-rule="evenodd" d="M120.169 94.003l-.995-1.713.545-.304c.838-.466 1.426-1.439 1.541-2.542l.009-.339-.009-.339c-.115-1.103-.703-2.075-1.541-2.541l-.545-.304.995-1.713.523.293c.746.417 1.378 1.064 1.828 1.868.455.813.704 1.755.721 2.726v.02a5.799 5.799 0 01-.721 2.726c-.45.805-1.082 1.451-1.828 1.869l-.523.293z" fill="#fff"/><path fill-rule="evenodd" clip-rule="evenodd" d="M121.838 89.483c-.132 1.346-.853 2.48-1.854 3.038l.378.653c1.3-.728 2.206-2.272 2.236-4.07-.03-1.797-.936-3.34-2.236-4.069l-.378.653c1.001.558 1.722 1.692 1.854 3.038l.01.379-.01.378zM127.872 90.257c-.37 3.667-2.38 6.756-5.178 8.276l1.058 1.776c3.628-1.981 6.158-6.187 6.243-11.082-.085-4.895-2.615-9.1-6.243-11.082l-1.058 1.776c2.798 1.52 4.808 4.61 5.178 8.276l.029 1.03-.029 1.03z" fill="#fff"/><path fill-rule="evenodd" clip-rule="evenodd" d="M121.939 97.184l-1.007-1.734.259-.144c.894-.498 1.675-1.261 2.259-2.208a7.753 7.753 0 001.091-3.29l.02-.696-.02-.695a7.752 7.752 0 00-1.091-3.29c-.584-.947-1.365-1.711-2.259-2.21l-.259-.143 1.007-1.733.248.139c1.268.71 2.347 1.814 3.118 3.193.789 1.409 1.221 3.046 1.249 4.734v.01c-.028 1.688-.46 3.325-1.249 4.734-.771 1.38-1.85 2.484-3.118 3.194l-.248.139z" fill="#fff"/><path fill-rule="evenodd" clip-rule="evenodd" d="M121.747 95.698l.423.73c1.07-.66 1.983-1.632 2.652-2.827.741-1.324 1.147-2.864 1.174-4.455-.027-1.59-.433-3.13-1.174-4.454-.669-1.195-1.582-2.167-2.652-2.827l-.423.73a6.943 6.943 0 012.215 2.26 8.332 8.332 0 011.176 3.55l.002.02.02.721-.022.743a8.333 8.333 0 01-1.176 3.55 6.942 6.942 0 01-2.215 2.26z" fill="#fff"/><path fill-rule="evenodd" clip-rule="evenodd" d="M124.838 89.844c-.25 2.541-1.608 4.682-3.499 5.735l.715 1.23c2.452-1.372 4.162-4.287 4.219-7.678-.057-3.392-1.767-6.306-4.219-7.68l-.715 1.232c1.891 1.053 3.249 3.194 3.499 5.734l.02.714-.02.713z" fill="#fff"/><path d="M172.241 49.679H68.991a9.565 9.565 0 00-6.767 2.806 9.589 9.589 0 00-2.803 6.776v63.243h122.39V59.261A9.616 9.616 0 00179 52.493a9.592 9.592 0 00-6.759-2.814v0z" stroke="#2C3338" stroke-linecap="round" stroke-linejoin="round"/><path d="M172.241 137.835a9.564 9.564 0 006.767-2.806 9.589 9.589 0 002.803-6.776v-5.75h-122.5v5.75a9.56 9.56 0 005.98 8.893 9.533 9.533 0 003.7.689h103.25z" fill="#fff" stroke="#2C3338" stroke-linecap="round" stroke-linejoin="round"/><path d="M120.561 131.752a1.582 1.582 0 000-3.166 1.582 1.582 0 000 3.166z" stroke="#2C3338" stroke-linecap="round" stroke-linejoin="round"/><rect x="177.754" y="153.215" width="21.167" height="3.734" rx="1" fill="#98C6D9" stroke="#2C3338"/><path fill="#98C6D9" stroke="#2C3338" d="M186.25 135.396h3.594v17.962h-3.594z"/><path d="M173.672 90a4 4 0 014-4h20.748a4 4 0 014 4v31.923h-28.748V90z" fill="#fff" stroke="#2C3338"/><mask id="a" maskUnits="userSpaceOnUse" x="173" y="85" width="30" height="38"><path d="M173.672 90a4 4 0 014-4h20.748a4 4 0 014 4v31.923h-28.748V90z" fill="#fff" stroke="#2C3338"/></mask><g mask="url(#a)" stroke="#2C3338"><path transform="rotate(-44.991 226.087 -142.612)" d="M0-.5h48.356"/><path transform="rotate(-44.991 206.947 -134.68)" d="M0-.5h48.356"/><path transform="rotate(-135.009 123.437 22.976)" d="M0-.5h51.527"/><path transform="rotate(-44.991 233.74 -145.787)" d="M0-.5h48.356"/><path transform="rotate(-135.009 124.75 19.805)" d="M0-.5h51.527"/><path transform="rotate(-44.991 241.398 -148.96)" d="M0-.5h48.356"/><path transform="rotate(-44.991 245.226 -150.545)" d="M0-.5h48.356"/><path transform="rotate(-44.991 249.054 -152.131) skewX(.019)" d="M0-.5h48.356"/><path transform="rotate(-44.991 252.883 -153.72) skewX(.019)" d="M0-.5h48.356"/><path transform="rotate(-44.991 256.71 -155.306)" d="M0-.5h48.356"/><path transform="rotate(-44.991 218.43 -139.44)" d="M0-.5h48.356"/><path transform="rotate(-44.991 199.29 -131.506)" d="M0-.5h48.356"/><path transform="rotate(-135.009 122.122 26.147)" d="M0-.5h51.527"/><path transform="rotate(-44.991 229.915 -144.198)" d="M0-.5h48.356"/><path transform="rotate(-44.991 210.775 -136.266) skewX(.019)" d="M0-.5h48.356"/><path transform="rotate(-135.009 124.093 21.39)" d="M0-.5h51.527"/><path transform="rotate(-44.991 237.57 -147.373)" d="M0-.5h48.356"/><path transform="rotate(-135.009 125.408 18.22)" d="M0-.5h51.527"/><path transform="rotate(-135.009 126.065 16.635)" d="M0-.5h51.527"/><path transform="rotate(-135.009 128.693 10.295)" d="M0-.5h51.527"/><path transform="rotate(-135.009 126.722 15.05)" d="M0-.5h51.527"/><path transform="rotate(-135.009 129.35 8.71)" d="M0-.5h51.527"/><path transform="rotate(-135.009 127.379 13.464)" d="M0-.5h51.527"/><path transform="rotate(-135.009 130.007 7.124)" d="M0-.5h51.527"/><path transform="rotate(-135.009 128.036 11.88)" d="M0-.5h51.527"/><path transform="rotate(-135.009 130.665 5.538)" d="M0-.5h51.527"/><path transform="rotate(-44.991 222.259 -141.025) skewX(.019)" d="M0-.5h48.356"/><path transform="rotate(-44.991 203.118 -133.092)" d="M0-.5h48.356"/><path transform="rotate(-135.009 122.78 24.561)" d="M0-.5h51.527"/><path transform="rotate(-44.991 214.603 -137.853)" d="M0-.5h48.356"/><path transform="rotate(-44.991 195.462 -129.92)" d="M0-.5h48.356"/><path transform="rotate(-135.009 121.465 27.731)" d="M0-.5h51.527"/><path transform="rotate(-135.009 120.808 29.317)" d="M0-.5h51.527"/></g><path d="M173.672 124.619h28.748v13.961a4 4 0 01-4 4h-20.748a4 4 0 01-4-4v-13.961z" fill="#98C6D9" stroke="#2C3338"/><rect x="186.25" y="131.803" width="3.594" height="3.592" rx="1" fill="#fff" stroke="#2C3338"/><rect x="172.774" y="121.024" width="30.545" height="3.592" rx="1" fill="#98C6D9" stroke="#2C3338"/><path d="M55.332 26.871c-.098-.431-.49-.863-.883-.97l-3.236-1.295c-.392-.108-.392-.323 0-.539l3.236-1.294c.392 0 .785-.431.883-.863l1.176-3.559c.098-.431.295-.431.49 0l1.177 3.56c.099.43.49.862.883.97l3.236 1.294c.392.108.392.323 0 .54L58.96 25.9c-.392.107-.785.539-.883.97l-1.176 3.559c-.098.431-.295.431-.49 0l-1.08-3.559z" fill="#399ce3"/><path d="M31.969 112.615c-.5.166-1 .666-1 1l-1.167 3.165c-.167.5-.5.5-.667 0l-1.166-3.165c-.167-.5-.667-1-1-1l-3.167-1.166c-.5-.167-.5-.5 0-.667l3.167-1.166c.5-.167 1-.667 1-1l1.166-3.165c.167-.5.5-.5.667 0l1.167 3.165c.166.5.666 1 1 1l3.166 1.166c.5.167.5.5 0 .667l-3.166 1.166z" fill="#044b7a"/><path d="M37.696 18.73a1.376 1.376 0 00-.493-.616l-.987-.493c-.197-.123-.197-.247 0-.247l.987-.493c.197-.123.394-.37.493-.616l.395-1.234c.099-.246.197-.246.197 0l.395 1.234c.099.246.296.493.493.616l.987.493c.198.124.198.247 0 .247l-.987.493c-.197.123-.394.37-.493.617l-.395 1.233c-.098.246-.197.246-.197 0l-.395-1.233z" fill="#F0C930"/><path d="M187.765 59.87v18.028M148.105 96.689l11.493 2.872M213.906 99.561l11.492-2.872M154.305 70.436l1.864 1.863m8.526 8.523L158.07 74.2M219.945 70.475l-1.864 1.863m-8.526 8.523l6.625-6.623" stroke="#F0C930" stroke-linecap="round"/></g><defs><clipPath id="clip0"><path fill="#fff" d="M0 0h257v157H0z"/></clipPath></defs></svg>
